X:90
T: Daban xiaolang yi zhi hua
N: C0113
O: China, Hubei, Changyang
S: I, 449]
R: Wuge, Dengdiao, Huaguzi. Jiaowang liyi]
M: 2/4
L: 1/16
K: F
c2cAc2d2 | f8
g3fd2d2 | c8
c2cAc2d2 | f8
A2c2A2d2 | c8
AcA4f2 | d2c2A4 | AccAd2f2 | c2c2A2c2
F3GA2c2 | G2A2F4 | G2F2DFCD | F8
AcA4f2 | d2c2A2GA | c8
F3GA2c2 | G2A2F4 | G2E2DFCD | F8

